X: 5915
T: Camel's Hump, The
R: reel
M: 4/4
K: Dmajor
|:cF ~F2 cF^AF|cF^AB =cBGE|cF ~F2 cF^AB|=cBGE F3z|
cF ~F2 cF^AF|cF^AB =cBG[EF]|GF ~F2 ^AF ~F2|=cBGE F3z:|
fc~c2 ^ac ~c2|(3dcB fB gBfB|fc~c2 ^ac ~c2|=c'bge f3g|
fc~c2 ^ac ~c2|(3dcB fB gBfB|c^A~A2 BG~G2|=cBGE F3z|
fc~c2 ^ac ~c2|(3dcB fB gBfB|fc~c2 ^ac ~c2|=c'3b ^a=a^g=g|
fc~c2 ^ac ~c2|(3dcB fB gBfB|c^A~A2 BG~G2|=cBGE F3z||

